X:1
T:Heralds of Easter
T:J. M. Thomas, 1891
T:Heralds of Easter
T:Public Domain
T:Public Domain
T:Public Domain
C:J. M. Thomas, 1891
Z:Public Domain
%%score 1 ( 2 3 )
L:1/8
M:4/4
K:Bb
V:1 treble 
V:2 bass 
V:3 bass 
V:1
 [DF]2 | [DF]2 [DF]2 [DF]3 [DF] | [EG]2 [GB]2 [FA]2 [EG]2 | [EG]2 [DF]4 [DF]2 | %4
w: 1.~The|night is past, the|hea- vy night of|sor- row, The|
w: 2.~A-|gain the words of|glad re- lease are|spok- en, To|
w: 3.~As|light re- turns, in|sud- den pal- lor|steal- ing, The|
 [EG]2 [EA]2 [DB]3 [DF] | [EG][EA][FB][Fc] [Fd]3 [Fd] | [Ge]2 [Ge]2 [Fd]3 [DB] | %7
w: creep- ing hours un-|sol- aced and a- lone; Lift|up your hearts to|
w: ev- ery soul with|lead- en grief op- pressed, The|year brings back the|
w: ci- ty starts, her|puls- es thrill a- gain— For|her the breath of|
 [CA][DB][Ec][Fd] [Ec] [DB]2 [DB] | [DB]2 [F_A]2 [EG]3 [EG] | [=Ec][Ec][EB][EB] [FA]3 [EF] | %10
w: greet the hap- py mor- row, Fair|cra- dle of a|fu- ture yet un- known; A|
w: old im- mor- tal tok- en, And|hope re- turns to|ease the bur- dened breast; A|
w: vi- tal strength and heal- ing, Whose|streets and al- leys|teem with my- riad men! In|
 [DF]>[DF] [DF]>[DF] [EG][EA][DB][DF] | [EG][FA][GB][Gc] [^Fd]3 [=Fd] | %12
w: whis- per shakes the cur- tained grey, To|hail the ris- ing King, And|
w: look— a word, we know not how, Our|long re- sent- ment goes; It|
w: many a hearth her grate- ful fires A|sac- red in- cense raise, For|
 [Ge]>[Ge] [Ge][Ge] [Fd]>[=E^c] [Fd][FB] | [Ec]>[Ec] [DB][CA] [DB]3 ||"^Refrain" z | %15
w: on the crys- tal air of day The|bells be- gin to ring.||
w: melts be- fore a sweet- er vow, To|van- ish like the snows.||
w: still the tame- less heart as- pires And|burns in prayers and praise.||
 z3 [Fd] [Ge]>[Ge] [Fd][Fc] | [Fd]3 [Fd] [Ge]>[Ge] [Fd][Fc] | [Fd]>[Fd] [Fd][Fd] [Fd]3 [Ff] | %18
w: The bells be- gin to|ring, The bells be- gin to|ring, to ring, to ring, And|
w: |||
w: |||
 [Ff][Fd][Fd][FB] [GB][EG] [EG]>[EG] | [DF]>[DB] [Fc]>[Fc] [Fd]3 [Fd] | %20
w: on the crys- tal air of day The|bells be- gin to ring, Ring|
w: ||
w: ||
 .[Ge]2 .[Ge]2 .[Fd]2 .[Ec]2 | [DB]6 |] %22
w: on, glad bells, ring|on.|
w: ||
w: ||
V:2
 [B,,B,]2 | [B,,B,]2 [B,,B,]2 [B,,B,]3 [B,,B,] | [B,,B,]2 [B,,B,]2 [B,,B,]2 [B,,B,]2 | %3
w: ~|~ ~ ~ ~|~ ~ ~ ~|
 [B,,B,]2 [B,,B,]4 [B,,B,]2 | [E,B,]2 [C,F,]2 [B,,F,]3 [B,,B,] | [E,B,][C,C][D,B,][F,A,] B,3 B, | %6
w: ~ ~ ~|~ ~ ~ ~|~ ~ ~ ~ ~ ~|
 (E,F,)(G,A,) B,3 [G,B,] | F,F,[F,A,][F,B,] [B,,F,] [B,,F,]2 [B,,F,] | %8
w: ~ * ~ * ~ ~|~ ~ ~ ~ ~ ~ ~|
 [B,,G,]2 [D,B,]2 [E,B,]3 [E,B,] | [C,G,][C,G,][C,C][C,C] [F,C]3 z | z4 z3 B, | %11
w: ~ ~ ~ ~|~ ~ ~ ~ ~|~|
 [G,B,][F,B,][E,B,][E,B,] [D,A,]3 B, | [E,B,]>[F,B,] [G,B,][A,B,] B,>B, B,[D,B,] | %13
w: ~ ~ ~ ~ ~ ~|~ ~ ~ ~ Oh, hark! oh, hark!|
 [E,G,]>[E,G,] F,F, [B,,F,]3 || B, | [F,A,]2 z B, [E,B,]2 z [F,A,] | B,3 B, [E,B,]3/2 z3/2 [F,A,] | %17
w: hark! Oh, hark! hark! *||||
 B, z3 B,2 z B, | [B,D]B,B,[D,B,] [E,E][E,B,] [E,B,]>[E,B,] | %19
w: ||
 [F,B,]>[F,B,] [F,A,]>[F,A,] [B,,B,]3 [B,,B,] | [E,B,]2 [G,B,]2 B,2 [F,A,]2 | [B,,F,]6 |] %22
w: |||
V:3
 x2 | x8 | x8 | x8 | x8 | x4 B,3 B, | B,2 B,2 B,3 x | F,F, x6 | x8 | x8 | x7 B, | x7 B, | %12
w: |||||~ ~|~ ~ ~|~ ~|||~|~|
 x4 B,>B, B, x | x2 F,F, x3 || B, | x3 B, x4 | B,3 B, x4 | B, x2 B,2 B, x2 | x B,B, x5 | x8 | %20
w: Oh, hark! oh,||||||||
 x4 B,2 x2 | x6 |] %22
w: ||

